X:5617
T:Gallagher's Frolics
R:Jig
Z:Added by Alf Warnock
M:6/8
L:1/8
K:D
D|:EDE GFE|BAB dBA|BdB BAB|GFG AFD|
EDE GFE|BAB dBA|BAG FAF|GEE E2:|
B|:e2f gfe|g2a bge|dcd fed|faf fed|
e2f gfe|dfe dBA|BAG FAF|GEE E2:|
